X: 45
T:Gavotte
O:France
A:Provence
C:Trad. militaire
R:Danse de caract?re
Z:Transcrit et/ou corrig? par Michel BELLON - 2005-07-17
Z:Pour toute observation mailto:galouvielle@free.fr
M:2/4
L:1/16
K:Bbmaj
P:A
(3FGA||B4B4|B6cd|e2d2 c2B2|A2G2 A2F2|B4B4|B6cd|c2B2 A2G2|F8||
P:B
c3d e2c2|A2F2 G2A2|B3c d2B2|F4F4|c3d e2c2|A2F2 G2A2|B3c d2B2|f4f4||
P:C
F2A2 c2A2|e2c2 A2F2|B4d3c|B6|]
<end>
<start>
